lib/flags/l/376.svg

<svg xmlns="http://www.w3.org/2000/svg" fill="none" viewBox="0 0 32 24"><mask id="376_svg__a" width="32" height="24" x="0" y="0" mask-type="alpha" maskUnits="userSpaceOnUse"><path fill="#fff" d="M0 0H32V24H0z"/></mask><g mask="url(#376_svg__a)"><path fill="#F7FCFF" fill-rule="evenodd" d="M0 0V24H32V0H0Z" clip-rule="evenodd"/><mask id="376_svg__b" width="32" height="24" x="0" y="0" mask-type="alpha" maskUnits="userSpaceOnUse"><path fill="#fff" fill-rule="evenodd" d="M0 0V24H32V0H0Z" clip-rule="evenodd"/></mask><g fill="#3D58DB" fill-rule="evenodd" clip-rule="evenodd" mask="url(#376_svg__b)"><path d="M0 3V6H32V3H0zM0 18V21H32V18H0zM11.3812 14.9387H20.7582L16.1159 6.62024 11.3812 14.9387zM19.1533 13.9295H13.0206L16.1066 8.45988 19.1533 13.9295z"/><path d="M11.264 9.07606H20.6808L16.1359 17.1615L11.264 9.07606ZM19.0454 10.05H13.051L16.1093 15.5312L19.0454 10.05Z"/></g></g></svg>

<svg xmlns="http://www.w3.org/2000/svg" fill="none" viewBox="0 0 32 24"><mask id="376_svg__a" width="32" height="24" x="0" y="0" maskUnits="userSpaceOnUse"><path fill="#fff" d="M0 0h32v24H0z"/></mask><g mask="url(#376_svg__a)"><path fill="#F7FCFF" fill-rule="evenodd" d="M0 0v24h32V0H0z" clip-rule="evenodd"/><mask id="376_svg__b" width="32" height="24" x="0" y="0" maskUnits="userSpaceOnUse"><path fill="#fff" fill-rule="evenodd" d="M0 0v24h32V0H0z" clip-rule="evenodd"/></mask><g fill="#3D58DB" fill-rule="evenodd" clip-rule="evenodd" mask="url(#376_svg__b)"><path d="M0 3v3h32V3H0zm0 15v3h32v-3H0zm11.381-3.061h9.377L16.116 6.62l-4.736 8.32zm7.772-1.01h-6.132l3.086-5.47 3.046 5.47z"/><path d="M11.264 9.076h9.417l-4.545 8.085-4.872-8.085zm7.781.974h-5.994l3.058 5.481 2.936-5.481z"/></g></g></svg>
